Hatter/scalable/apps/haruna-video-player.svg

<?xml version="1.0" encoding="UTF-8" standalone="no"?>
<svg
   version="1.1"
   viewBox="0 0 64 64"
   id="svg29"
   sodipodi:docname="haruna-video-player.svg"
   width="64"
   height="64"
   xml:space="preserve"
   inkscape:version="1.2.2 (b0a8486541, 2022-12-01)"
   xmlns:inkscape="http://www.inkscape.org/namespaces/inkscape"
   xmlns:sodipodi="http://sodipodi.sourceforge.net/DTD/sodipodi-0.dtd"
   xmlns:xlink="http://www.w3.org/1999/xlink"
   xmlns="http://www.w3.org/2000/svg"
   xmlns:svg="http://www.w3.org/2000/svg"><sodipodi:namedview
     id="namedview31"
     pagecolor="#ffffff"
     bordercolor="#999999"
     borderopacity="1"
     inkscape:showpageshadow="0"
     inkscape:pageopacity="0"
     inkscape:pagecheckerboard="0"
     inkscape:deskcolor="#d1d1d1"
     showgrid="false"
     inkscape:zoom="8.4375"
     inkscape:cx="47.051852"
     inkscape:cy="28.859259"
     inkscape:window-width="1920"
     inkscape:window-height="965"
     inkscape:window-x="0"
     inkscape:window-y="40"
     inkscape:window-maximized="1"
     inkscape:current-layer="svg29" /><defs
     id="defs7"><linearGradient
       id="bg"
       x2="0"
       y1="1"
       y2="47"
       gradientUnits="userSpaceOnUse"
       gradientTransform="translate(-58.078628)"><stop
         style="stop-color:#b7ebeb"
         offset="0"
         id="stop2" /><stop
         style="stop-color:#a8e6e6"
         offset="1"
         id="stop4" /></linearGradient><filter
       inkscape:collect="always"
       style="color-interpolation-filters:sRGB"
       id="filter1057"
       x="-0.026999999"
       width="1.054"
       y="-0.026999999"
       height="1.054"><feGaussianBlur
         inkscape:collect="always"
         stdDeviation="0.61875"
         id="feGaussianBlur1059" /></filter><linearGradient
       inkscape:collect="always"
       xlink:href="#linearGradient1051"
       id="linearGradient1053"
       x1="-127"
       y1="60"
       x2="-127"
       y2="5"
       gradientUnits="userSpaceOnUse"
       gradientTransform="translate(131.5,-0.054157)" /><linearGradient
       inkscape:collect="always"
       id="linearGradient1051"><stop
         style="stop-color:#1d2123;stop-opacity:1"
         offset="0"
         id="stop1047" /><stop
         style="stop-color:#33393e;stop-opacity:0.99607843"
         offset="1"
         id="stop1049" /></linearGradient><filter
       id="filter951"
       x="-0.10129423"
       y="-0.071750365"
       width="1.2025885"
       height="1.1435007"
       color-interpolation-filters="sRGB"><feGaussianBlur
         stdDeviation="15.306655"
         id="feGaussianBlur1002" /></filter></defs><rect
     ry="15"
     y="4.9558425"
     x="4.4905019"
     height="55"
     width="55"
     id="rect1055"
     style="opacity:0.3;fill:#141414;fill-opacity:1;stroke-width:2.74436;stroke-linecap:round;filter:url(#filter1057)" /><rect
     style="fill:url(#linearGradient1053);fill-opacity:1;stroke-width:2.74436;stroke-linecap:round"
     id="rect1045"
     width="54.999996"
     height="54.999996"
     x="4.5000005"
     y="4.9558444"
     ry="14.999999" /><circle
     cx="32"
     cy="32"
     r="30.000999"
     fill-opacity="0"
     stroke-width="1.5715"
     id="circle890" /><path
     id="rect805"
     style="fill:#e5e7e7;fill-opacity:1;fill-rule:evenodd;stroke:none;stroke-width:0.964683;stroke-linecap:round;stroke-linejoin:round;paint-order:stroke fill markers"
     d="M 16.032874,15 V 28.300097 35.699903 49 h 9.247912 V 35.699903 H 38.719214 V 49 h 9.247912 V 35.699903 28.300097 15 H 38.719214 V 28.300097 H 25.280786 V 15 Z m 3.019312,5.217859 h 3.21851 v 3.218509 h -3.21851 z m 22.677118,0 h 3.21851 v 3.218509 h -3.21851 z M 19.052186,30.391668 h 3.21851 v 3.216664 h -3.21851 z m 22.677118,0 h 3.21851 v 3.216664 h -3.21851 z M 19.052186,40.563632 h 3.21851 v 3.218509 h -3.21851 z m 22.677118,0 h 3.21851 v 3.218509 h -3.21851 z" /></svg>

<?xml version="1.0" encoding="UTF-8"?>
<svg id="svg29" width="64" height="64" version="1.1" viewBox="0 0 64 64" xml:space="preserve" xmlns="http://www.w3.org/2000/svg" xmlns:xlink="http://www.w3.org/1999/xlink"><defs id="defs7"><filter id="filter1057" x="-.027" y="-.027" width="1.054" height="1.054" color-interpolation-filters="sRGB"><feGaussianBlur id="feGaussianBlur1059" stdDeviation="0.61875"/></filter><linearGradient id="linearGradient1053" x1="-127" x2="-127" y1="60" y2="5" gradientTransform="translate(131.5 -.054157)" gradientUnits="userSpaceOnUse"><stop id="stop1047" stop-color="#1d2123" offset="0"/><stop id="stop1049" stop-color="#33393e" stop-opacity=".99608" offset="1"/></linearGradient></defs><rect id="rect1055" x="4.4905" y="4.9558" width="55" height="55" ry="15" fill="#141414" filter="url(#filter1057)" opacity=".3" stroke-linecap="round" stroke-width="2.7444"/><rect id="rect1045" x="4.5" y="4.9558" width="55" height="55" ry="15" fill="url(#linearGradient1053)" stroke-linecap="round" stroke-width="2.7444"/><circle id="circle890" cx="32" cy="32" r="30.001" fill-opacity="0" stroke-width="1.5715"/><path id="rect805" d="m16.033 15v34h9.2479v-13.3h13.438v13.3h9.2479v-34h-9.2479v13.3h-13.438v-13.3zm3.0193 5.2179h3.2185v3.2185h-3.2185zm22.677 0h3.2185v3.2185h-3.2185zm-22.677 10.174h3.2185v3.2167h-3.2185zm22.677 0h3.2185v3.2167h-3.2185zm-22.677 10.172h3.2185v3.2185h-3.2185zm22.677 0h3.2185v3.2185h-3.2185z" fill="#e5e7e7" fill-rule="evenodd" style="paint-order:stroke fill markers"/></svg>
